images/icons/white-logo-1.svg

<svg width="80" height="15" viewBox="0 0 80 15" fill="none" xmlns="http://www.w3.org/2000/svg">
<g clip-path="url(#clip0_521_362)">
<path d="M19.2827 0.637207H21.2801V11.5317H24.5666V13.3475H19.2827V0.637207Z" fill="white"/>
<path d="M28.3406 13.5293C27.3601 13.5293 26.6096 13.2509 26.0891 12.694C25.5686 12.1372 25.3083 11.3504 25.3083 10.3335V3.65155C25.3083 2.63472 25.5686 1.84789 26.0891 1.29106C26.6096 0.734226 27.3601 0.455811 28.3406 0.455811C29.3211 0.455811 30.0716 0.734226 30.5922 1.29106C31.1127 1.84789 31.3729 2.63472 31.3729 3.65155V10.3335C31.3729 11.3504 31.1127 12.1372 30.5922 12.694C30.0716 13.2509 29.3211 13.5293 28.3406 13.5293ZM28.3406 11.7135C29.0306 11.7135 29.3757 11.2959 29.3757 10.4606V3.52444C29.3757 2.68919 29.0306 2.27157 28.3406 2.27157C27.6506 2.27157 27.3056 2.68919 27.3056 3.52444V10.4606C27.3056 11.2959 27.6506 11.7135 28.3406 11.7135Z" fill="white"/>
<path d="M35.5562 13.5293C34.5878 13.5293 33.8494 13.2569 33.341 12.7122C32.8326 12.1554 32.5784 11.3625 32.5784 10.3335V3.65155C32.5784 2.62262 32.8326 1.83579 33.341 1.29106C33.8494 0.734226 34.5878 0.455811 35.5562 0.455811C36.5246 0.455811 37.263 0.734226 37.7714 1.29106C38.2799 1.83579 38.5341 2.62262 38.5341 3.65155V4.741H36.6457V3.52444C36.6457 2.68919 36.3007 2.27157 35.6107 2.27157C34.9207 2.27157 34.5757 2.68919 34.5757 3.52444V10.4788C34.5757 11.302 34.9207 11.7135 35.6107 11.7135C36.3007 11.7135 36.6457 11.302 36.6457 10.4788V7.99121H35.647V6.17546H38.5341V10.3335C38.5341 11.3625 38.2799 12.1554 37.7714 12.7122C37.263 13.2569 36.5246 13.5293 35.5562 13.5293Z" fill="white"/>
<path d="M42.7034 13.5293C41.7229 13.5293 40.9724 13.2509 40.4519 12.694C39.9314 12.1372 39.6711 11.3504 39.6711 10.3335V3.65155C39.6711 2.63472 39.9314 1.84789 40.4519 1.29106C40.9724 0.734226 41.7229 0.455811 42.7034 0.455811C43.684 0.455811 44.4345 0.734226 44.955 1.29106C45.4755 1.84789 45.7358 2.63472 45.7358 3.65155V10.3335C45.7358 11.3504 45.4755 12.1372 44.955 12.694C44.4345 13.2509 43.684 13.5293 42.7034 13.5293ZM42.7034 11.7135C43.3934 11.7135 43.7384 11.2959 43.7384 10.4606V3.52444C43.7384 2.68919 43.3934 2.27157 42.7034 2.27157C42.0135 2.27157 41.6685 2.68919 41.6685 3.52444V10.4606C41.6685 11.2959 42.0135 11.7135 42.7034 11.7135Z" fill="white"/>
<path d="M47.0903 0.637207H49.0877V13.3475H47.0903V0.637207Z" fill="white"/>
<path d="M50.5835 0.637207H53.525C54.5175 0.637207 55.262 0.903517 55.7585 1.43614C56.255 1.96876 56.503 2.74954 56.503 3.77847V5.03133C56.503 6.06028 56.255 6.84103 55.7585 7.37368C55.262 7.90628 54.5175 8.17258 53.525 8.17258H52.581V13.3475H50.5835V0.637207ZM53.525 6.35683C53.852 6.35683 54.094 6.26603 54.2515 6.08448C54.421 5.90288 54.5055 5.59423 54.5055 5.15843V3.65137C54.5055 3.21558 54.421 2.9069 54.2515 2.72533C54.094 2.54375 53.852 2.45297 53.525 2.45297H52.581V6.35683H53.525Z" fill="white"/>
<path d="M60.255 13.5293C59.287 13.5293 58.5545 13.2569 58.058 12.7122C57.562 12.1554 57.3135 11.3625 57.3135 10.3335V9.60721H59.202V10.4788C59.202 11.302 59.547 11.7135 60.237 11.7135C60.576 11.7135 60.83 11.6167 60.9995 11.423C61.181 11.2172 61.272 10.8904 61.272 10.4425C61.272 9.90986 61.151 9.44381 60.909 9.04436C60.667 8.63276 60.219 8.14251 59.565 7.57356C58.742 6.84726 58.167 6.19361 57.84 5.61256C57.5135 5.01941 57.35 4.35364 57.35 3.61523C57.35 2.61051 57.604 1.83579 58.1125 1.29106C58.621 0.734226 59.3595 0.455811 60.328 0.455811C61.284 0.455811 62.0045 0.734226 62.4885 1.29106C62.985 1.83579 63.233 2.62262 63.233 3.65155V4.17812H61.3445V3.52444C61.3445 3.08866 61.26 2.77393 61.0905 2.58025C60.921 2.37446 60.673 2.27157 60.346 2.27157C59.68 2.27157 59.3475 2.67709 59.3475 3.48813C59.3475 3.94812 59.4685 4.37785 59.7105 4.77731C59.9645 5.17676 60.4185 5.66096 61.0725 6.22991C61.9075 6.95621 62.4825 7.61596 62.7975 8.20911C63.112 8.80226 63.2695 9.49826 63.2695 10.2972C63.2695 11.3383 63.009 12.1372 62.4885 12.694C61.98 13.2509 61.2355 13.5293 60.255 13.5293Z" fill="white"/>
<path d="M67.32 13.5291C66.3515 13.5291 65.613 13.2567 65.1045 12.712C64.596 12.1552 64.342 11.3623 64.342 10.3333V0.637207H66.3395V10.4786C66.3395 10.9144 66.424 11.2291 66.5935 11.4228C66.775 11.6165 67.0295 11.7133 67.356 11.7133C67.683 11.7133 67.931 11.6165 68.1005 11.4228C68.282 11.2291 68.373 10.9144 68.373 10.4786V0.637207H70.2975V10.3333C70.2975 11.3623 70.0435 12.1552 69.535 12.712C69.0265 13.2567 68.288 13.5291 67.32 13.5291Z" fill="white"/>
<path d="M71.72 0.637207H74.571L75.842 9.73413H75.878L77.1495 0.637207H80V13.3475H78.1115V3.724H78.0755L76.6225 13.3475H74.952L73.4995 3.724H73.4635V13.3475H71.72V0.637207Z" fill="white"/>
<path d="M0 13.3476C2.45724 13.3476 4.4492 11.3556 4.4492 8.89845C4.4492 6.4412 2.45724 4.44922 0 4.44922V7.56365C0.737165 7.56365 1.33475 8.16125 1.33475 8.89845C1.33475 9.6356 0.737165 10.2332 0 10.2332V13.3476Z" fill="white"/>
<path d="M14.8307 5.93232C14.0704 5.69147 13.2607 5.56152 12.4207 5.56152C8.01815 5.56152 4.44922 9.13052 4.44922 13.533C4.44922 13.9749 4.48518 14.4084 4.55431 14.8307H9.50725C9.33045 14.4343 9.23215 13.9952 9.23215 13.533C9.23215 11.772 10.6597 10.3444 12.4207 10.3444C13.3832 10.3444 14.246 10.7709 14.8307 11.4451V5.93232Z" fill="white"/>
<path d="M0.782227 0C1.1511 3.33687 3.98012 5.9323 7.41532 5.9323C10.8505 5.9323 13.6795 3.33687 14.0484 0H9.27562C8.98097 0.73865 8.25907 1.2606 7.41532 1.2606C6.57152 1.2606 5.84967 0.73865 5.55497 0H0.782227Z" fill="white"/>
</g>
<defs>
<clipPath id="clip0_521_362">
<rect width="80" height="15" fill="white"/>
</clipPath>
</defs>
</svg>

<svg width="80" height="15" fill="none" xmlns="http://www.w3.org/2000/svg"><g clip-path="url(#a)" fill="#fff"><path d="M19.283.637h1.997v10.895h3.287v1.816h-5.284V.637ZM28.34 13.53c-.98 0-1.73-.28-2.25-.836-.521-.557-.782-1.344-.782-2.36V3.652c0-1.017.26-1.804.781-2.36.52-.558 1.271-.836 2.252-.836.98 0 1.73.278 2.251.835.52.557.78 1.344.78 2.36v6.683c0 1.016-.26 1.803-.78 2.36-.52.557-1.27.835-2.251.835Zm0-1.816c.69 0 1.036-.418 1.036-1.253V3.524c0-.835-.345-1.252-1.035-1.252s-1.035.417-1.035 1.252v6.937c0 .835.345 1.252 1.035 1.252ZM35.556 13.53c-.968 0-1.707-.273-2.215-.818-.508-.557-.763-1.35-.763-2.378V3.652c0-1.03.255-1.816.763-2.36.508-.558 1.247-.836 2.215-.836.969 0 1.707.278 2.215.835.509.545.763 1.332.763 2.36v1.09h-1.888V3.524c0-.835-.345-1.252-1.035-1.252s-1.035.417-1.035 1.252v6.955c0 .823.345 1.235 1.035 1.235s1.035-.412 1.035-1.235V7.99h-.999V6.175h2.887v4.159c0 1.029-.254 1.821-.763 2.378-.508.545-1.246.817-2.215.817ZM42.703 13.53c-.98 0-1.73-.28-2.251-.836-.52-.557-.78-1.344-.78-2.36V3.652c0-1.017.26-1.804.78-2.36.52-.558 1.27-.836 2.251-.836.981 0 1.731.278 2.252.835.52.557.78 1.344.78 2.36v6.683c0 1.016-.26 1.803-.78 2.36-.52.557-1.271.835-2.252.835Zm0-1.816c.69 0 1.035-.418 1.035-1.253V3.524c0-.835-.345-1.252-1.035-1.252s-1.035.417-1.035 1.252v6.937c0 .835.346 1.252 1.035 1.252ZM47.09.637h1.998v12.71H47.09V.637ZM50.584.637h2.941c.992 0 1.737.267 2.233.8.497.532.745 1.313.745 2.341v1.253c0 1.03-.248 1.81-.745 2.343-.496.532-1.24.799-2.233.799h-.944v5.175h-1.998V.637Zm2.941 5.72c.327 0 .569-.091.727-.273.169-.181.253-.49.253-.926V3.651c0-.435-.084-.744-.254-.926-.157-.181-.399-.272-.726-.272h-.944v3.904h.944ZM60.255 13.53c-.968 0-1.7-.273-2.197-.818-.496-.557-.745-1.35-.745-2.378v-.727h1.889v.872c0 .823.345 1.235 1.035 1.235.339 0 .593-.097.762-.291.182-.206.273-.533.273-.98 0-.533-.121-1-.363-1.399-.242-.411-.69-.901-1.344-1.47-.823-.727-1.398-1.38-1.725-1.961-.327-.594-.49-1.26-.49-1.998 0-1.004.254-1.78.762-2.324.509-.557 1.247-.835 2.216-.835.956 0 1.676.278 2.16.835.497.545.745 1.332.745 2.36v.527h-1.889v-.654c0-.435-.084-.75-.254-.944-.169-.206-.417-.308-.744-.308-.666 0-.998.405-.998 1.216 0 .46.12.89.363 1.29.254.399.708.883 1.361 1.452.835.726 1.41 1.386 1.725 1.98.315.592.473 1.288.473 2.087 0 1.041-.261 1.84-.782 2.397-.508.557-1.252.835-2.233.835ZM67.32 13.53c-.968 0-1.707-.273-2.215-.818-.509-.557-.763-1.35-.763-2.379V.637h1.998v9.842c0 .435.084.75.254.944.181.194.436.29.762.29.327 0 .575-.096.745-.29.181-.194.272-.509.272-.944V.637h1.924v9.696c0 1.03-.254 1.822-.762 2.379-.508.545-1.247.817-2.215.817ZM71.72.637h2.851l1.271 9.097h.036L77.15.637H80v12.71h-1.888V3.725h-.036l-1.453 9.623h-1.671l-1.453-9.623h-.035v9.623H71.72V.637ZM0 13.348a4.45 4.45 0 1 0 0-8.899v3.115a1.335 1.335 0 0 1 0 2.67v3.114Z"/><path d="M14.83 5.932c-.76-.24-1.57-.37-2.41-.37a7.971 7.971 0 0 0-7.866 9.269h4.953a3.189 3.189 0 0 1 5.323-3.386V5.932Z"/><path d="M.782 0a6.675 6.675 0 0 0 13.266 0H9.276a2.003 2.003 0 0 1-3.721 0H.782Z"/></g><defs><clipPath id="a"><path fill="#fff" d="M0 0h80v15H0z"/></clipPath></defs></svg>
